icons/media/disc-lock-24.svg

<svg width="24" height="24" viewBox="0 0 24 24" fill="none" xmlns="http://www.w3.org/2000/svg">
<path fill-rule="evenodd" clip-rule="evenodd" d="M16.75 18V17.25C16.75 15.5931 18.0931 14.25 19.75 14.25C21.4069 14.25 22.75 15.5931 22.75 17.25V18H23C23.5523 18 24 18.4477 24 19V23C24 23.5523 23.5523 24 23 24H16.5C15.9477 24 15.5 23.5523 15.5 23V19C15.5 18.4477 15.9477 18 16.5 18H16.75ZM18.25 17.25C18.25 16.4216 18.9216 15.75 19.75 15.75C20.5784 15.75 21.25 16.4216 21.25 17.25V18H18.25V17.25Z" fill="black"/>
<path fill-rule="evenodd" clip-rule="evenodd" d="M12 2.5C6.75329 2.5 2.5 6.75329 2.5 12C2.5 17.2467 6.75329 21.5 12 21.5C12.4142 21.5 12.75 21.8358 12.75 22.25C12.75 22.6642 12.4142 23 12 23C5.92487 23 1 18.0751 1 12C1 5.92487 5.92487 1 12 1C18.0751 1 23 5.92487 23 12C23 12.4142 22.6642 12.75 22.25 12.75C21.8358 12.75 21.5 12.4142 21.5 12C21.5 6.75329 17.2467 2.5 12 2.5Z" fill="black"/>
<path fill-rule="evenodd" clip-rule="evenodd" d="M12 13.5C12.8284 13.5 13.5 12.8284 13.5 12C13.5 11.1716 12.8284 10.5 12 10.5C11.1716 10.5 10.5 11.1716 10.5 12C10.5 12.8284 11.1716 13.5 12 13.5ZM12 15C13.6569 15 15 13.6569 15 12C15 10.3431 13.6569 9 12 9C10.3431 9 9 10.3431 9 12C9 13.6569 10.3431 15 12 15Z" fill="black"/>
</svg>

<svg xmlns="http://www.w3.org/2000/svg" width="24" height="24"><path fill-rule="evenodd" d="M16.75 18v-.75a3 3 0 116 0V18H23a1 1 0 011 1v4a1 1 0 01-1 1h-6.5a1 1 0 01-1-1v-4a1 1 0 011-1h.25zm1.5-.75a1.5 1.5 0 013 0V18h-3v-.75z"/><path fill-rule="evenodd" d="M12 2.5a9.5 9.5 0 100 19 .75.75 0 010 1.5C5.925 23 1 18.075 1 12S5.925 1 12 1s11 4.925 11 11a.75.75 0 01-1.5 0A9.5 9.5 0 0012 2.5z"/><path fill-rule="evenodd" d="M12 13.5a1.5 1.5 0 100-3 1.5 1.5 0 000 3zm0 1.5a3 3 0 100-6 3 3 0 000 6z"/></svg>
